X:344
T:New Budget, The
M:C|
C:© Paul Gitlitz 2012
K:G
"G"Bd (3ddd "C"cege|"G"Bd (3ddd "D"cAFD|"G"Bd (3ddd "C"cega|"G"bgaf "Em"gfed|!
"G"BG (3GGG "D"AFDF|"G"GB (3BBB "Am"ABcA|"G"BG (3GGG "D"AFdc|"G"BAGF GBdc:|!
"G"Bgfg "Em"egdg|"G"Bgfg "Em"ageg|"G"Bgfg "Em"egdB|"Am"cBAB "C"cdef|!
"G"Bgfg "Em"egdg|"G"bgag "Em"egdg|"G"cgBg "G"AgGg|1"D"FGAB "G"GBdc:|2"D"FGAB "G"G4|]
